X:1
T:Title
%%score ( 1 2 ) { 3 | 4 }
L:1/8
Q:1/4=112
M:4/4
K:C
V:1 treble nm="Bright Piano"
V:2 treble 
V:3 treble nm="Bright Piano"
V:4 bass 
V:1
 [Ec]4 [GB]2 [FA]2 | [EG]4 C2 [CG]2 | F2 A2 [B,G]2 [DF]2 | [CE]8 | [CE]4 [D^F]2 D2 | G2 A2 [DB]4 | %6
w: B.~von~Viebahn * *||||||
 [EA]4 [DG]2 [D^F]2 | [DG]8 | [CG]4 [CE]2 [Ec]2 | [Fc]3 [FA] [FA]4 | [Dd]4 [^FA]2 [Dc]2 | %11
w: |||||
 [DB]2 AG [Cc]4 | [Ge]4 dcBA | z2 F2 z4 | [CG]4 [CF]2 [CD]2 | C8 |] %16
w: |||||
V:2
 x8 | x8 | C4 z4 | x8 | x8 | D4 z4 | x8 | x8 | x8 | x8 | x8 | z2 D2 z4 | z4 F2 F2 | G2 CB, [CE]4 | %14
 x8 | x8 |] %16
V:3
 C4 C2 C2 | C4 G,2[K:bass] G,2 | A,2 F,2 G,2 G,2 | G,8 | G,4 A,2 ^F,2 | G,2 ^F,2 G,4 | %6
 G,4 B,2 A,C | B,8 | E,4 G,2 _B,2 | A,3[K:treble] C C4 | A,4 D2 A,2 | G,2 B,2 G,4 | C4 A,2 A,B, | %13
 C2 A,D C4 | _B,4 A,2 G,2 | E,8 |] %16
V:4
 C,4 E,2 F,2 | C,4 E,2 E,2 | D,4 G,,2 B,,2 | C,8 | C,4 C,2 C,2 | B,,2 A,,2 G,,4 | C,4 D,2 D,2 | %7
 G,,8 | C,4 C,2 C,2 | F,3 F, F,4 | ^F,4 D,2 =F,2 | z2 F,2 E,4 | C,4 F,2 F,2 | E,2 F,G, A,4 | %14
 E,4 F,2 z2 | C,8 |] %16

